Dominus_Funeral/scalable/actions/zoom-in.svg

<?xml version="1.0" encoding="UTF-8" standalone="no"?>
<svg
   xmlns:dc="http://purl.org/dc/elements/1.1/"
   xmlns:cc="http://creativecommons.org/ns#"
   xmlns:rdf="http://www.w3.org/1999/02/22-rdf-syntax-ns#"
   xmlns:svg="http://www.w3.org/2000/svg"
   xmlns="http://www.w3.org/2000/svg"
   xmlns:sodipodi="http://sodipodi.sourceforge.net/DTD/sodipodi-0.dtd"
   xmlns:inkscape="http://www.inkscape.org/namespaces/inkscape"
   width="24"
   height="24"
   version="1.1"
   id="svg4"
   sodipodi:docname="zoom-in.svg"
   inkscape:version="0.92.4 (5da689c313, 2019-01-14)">
  <metadata
     id="metadata10">
    <rdf:RDF>
      <cc:Work
         rdf:about="">
        <dc:format>image/svg+xml</dc:format>
        <dc:type
           rdf:resource="http://purl.org/dc/dcmitype/StillImage" />
        <dc:title></dc:title>
      </cc:Work>
    </rdf:RDF>
  </metadata>
  <defs
     id="defs8" />
  <sodipodi:namedview
     pagecolor="#ffffff"
     bordercolor="#666666"
     borderopacity="1"
     objecttolerance="10"
     gridtolerance="10"
     guidetolerance="10"
     inkscape:pageopacity="0"
     inkscape:pageshadow="2"
     inkscape:window-width="1112"
     inkscape:window-height="480"
     id="namedview6"
     showgrid="false"
     inkscape:zoom="9.8333333"
     inkscape:cx="1.0677966"
     inkscape:cy="12"
     inkscape:window-x="0"
     inkscape:window-y="25"
     inkscape:window-maximized="0"
     inkscape:current-layer="svg4" />
  <path
     d="m 9.682,3.46 a 6.31,6.31 0 1 0 0,12.62 c 1.568,0 3,-0.573 4.101,-1.52 l 0.268,0.268 v 0.767 l 4.854,4.844 1.447,-1.446 -4.845,-4.855 H 14.735 L 14.468,13.871 A 6.25,6.25 0 0 0 15.993,9.77 6.31,6.31 0 0 0 9.683,3.46 m 0,1.94 A 4.3700001,4.3700001 0 1 1 9.681,14.14 4.37,4.37 0 0 1 9.682,5.4 M 9.197,7.342 V 9.284 H 7.255 v 0.971 h 1.942 v 1.942 h 0.97 v -1.942 h 1.942 V 9.285 H 10.168 V 7.341 H 9.197"
     id="path2"
     inkscape:connector-curvature="0"
     style="fill:#1a1a1a" />
</svg>

<svg xmlns="http://www.w3.org/2000/svg" width="24" height="24"><path fill="#1a1a1a" d="M9.68 3.46a6.31 6.31 0 1 0 0 12.62c1.57 0 3-.57 4.1-1.52l.27.27v.76l4.86 4.85 1.44-1.45-4.84-4.85h-.77l-.27-.27a6.25 6.25 0 0 0 1.52-4.1 6.31 6.31 0 0 0-6.3-6.31m0 1.94a4.37 4.37 0 1 1 0 8.74 4.37 4.37 0 0 1 0-8.74m-.5 1.94v1.94H7.27v.98H9.2v1.94h.97v-1.94h1.94v-.97h-1.94V7.33H9.2"/></svg>
